lib/logotmp/nrk-logo-nrk-sorlandet-with-bg.svg

<svg width="126" height="24" viewBox="0 0 126 24" fill="none" xmlns="http://www.w3.org/2000/svg">
<rect width="126" height="24" fill="#1767CE"/>
<path d="M6 17.9976V5.99865H10V17.9976H6ZM15.2438 7.90834L17.5081 17.9976H13.1992L10.4955 5.99865H12.9122C13.4663 5.99146 14.0041 6.18681 14.4245 6.54795C14.8456 6.89394 15.0849 7.37426 15.2438 7.90834ZM18 17.9976V5.99865H22V17.9976H18ZM25.0105 10.5617C24.5862 10.5658 24.1687 10.4548 23.8025 10.2405C23.4412 10.0317 23.1411 9.73152 22.9323 9.37016C22.7178 9.00389 22.6068 8.58632 22.611 8.16188C22.6061 7.74002 22.7172 7.32494 22.9323 6.96199C23.1433 6.60455 23.4431 6.30765 23.8025 6.10008C24.1689 5.88606 24.5862 5.77507 25.0105 5.77894C25.4322 5.7744 25.8471 5.88549 26.2102 6.10008C26.566 6.30947 26.8626 6.60612 27.072 6.96199C27.2868 7.32504 27.3979 7.74005 27.3933 8.16188C27.3973 8.58629 27.2863 9.00379 27.072 9.37016C26.8649 9.72993 26.5679 10.0298 26.2102 10.2405C25.8471 10.4555 25.4324 10.5666 25.0105 10.5617ZM28 17.9976V5.99865H32V17.9976H28ZM36.9737 12.5558C36.9848 12.5674 37.0693 12.7054 37.2272 12.9698C37.3851 13.2342 37.5906 13.5722 37.8439 13.9838C38.0974 14.3953 38.3649 14.8318 38.6463 15.2936C38.9278 15.7553 39.1926 16.1919 39.4408 16.6033C39.6881 17.0147 39.9697 17.4795 40.2857 17.9976H35.9598C35.6893 17.5582 35.4441 17.161 35.2245 16.8061C35.0048 16.4512 34.7713 16.0681 34.5238 15.6569C34.2758 15.2461 34.0306 14.8461 33.7882 14.457C33.5458 14.0679 33.3375 13.7272 33.1633 13.4346C32.9883 13.1419 32.8671 12.9447 32.7997 12.8431C32.6325 12.591 32.5336 12.2999 32.5127 11.9981C32.5294 11.7085 32.6226 11.4285 32.7828 11.1867C32.8503 11.074 32.9743 10.874 33.1545 10.5867C33.3348 10.2994 33.546 9.95861 33.7882 9.56428C34.0304 9.16995 34.2756 8.76716 34.5238 8.35593C34.772 7.9447 35.0055 7.55879 35.2245 7.19826C35.4445 6.83811 35.6897 6.43814 35.9598 5.99837H40.2857L36.9396 11.4571C36.8361 11.6191 36.7777 11.8059 36.7706 11.9981C36.7818 12.1999 36.8528 12.3939 36.9737 12.5558Z" fill="white"/>
<path d="M52.2911 13.3047C52.4208 13.6654 52.4856 14.0937 52.4856 14.5897C52.4856 15.266 52.37 15.8324 52.139 16.2889C51.9079 16.7453 51.581 17.1145 51.1584 17.3963C50.7357 17.6781 50.2454 17.881 49.6874 18.0049C49.1295 18.1289 48.5293 18.1909 47.8868 18.1909C47.6163 18.1909 47.3486 18.1796 47.0837 18.1571C46.8188 18.1346 46.554 18.1036 46.2891 18.0641C46.0242 18.0247 45.7509 17.9683 45.4691 17.895C45.1873 17.8218 44.8942 17.7288 44.5899 17.6161L44.3701 15.9423C44.6406 16.0437 44.9252 16.1423 45.2239 16.2381C45.5226 16.3339 45.8298 16.4157 46.1454 16.4833C46.461 16.5509 46.7766 16.6045 47.0922 16.6439C47.4078 16.6834 47.7121 16.7031 48.0052 16.7031C48.3546 16.7031 48.6674 16.6805 48.9435 16.6355C49.2197 16.5904 49.4648 16.5171 49.679 16.4157C49.8931 16.3142 50.0735 16.179 50.22 16.0099C50.3665 15.8408 50.4793 15.6436 50.5582 15.4181C50.6371 15.1927 50.6765 14.9335 50.6765 14.6404C50.6765 14.3473 50.6342 14.1163 50.5497 13.9134C50.4652 13.7105 50.3496 13.5414 50.2031 13.4062C50.0566 13.2709 49.8791 13.1526 49.6705 13.0511C49.462 12.9497 49.2281 12.8623 48.9689 12.7891C48.7096 12.7158 48.4278 12.6454 48.1235 12.5777C47.7516 12.4988 47.3881 12.403 47.033 12.2903C46.678 12.1776 46.3483 12.0423 46.0439 11.8845C45.7396 11.7267 45.4691 11.5295 45.2324 11.2928C44.9957 11.0561 44.8125 10.7715 44.6829 10.439C44.5533 10.1065 44.4885 9.70913 44.4885 9.247C44.4885 8.66088 44.5927 8.15367 44.8013 7.72535C45.0098 7.29703 45.3085 6.94198 45.6973 6.6602C46.0862 6.37841 46.5455 6.16989 47.0753 6.03463C47.605 5.89937 48.1968 5.83174 48.8505 5.83174C49.1436 5.83174 49.431 5.84583 49.7128 5.87401C49.9946 5.90219 50.2707 5.94446 50.5413 6.00081C50.8118 6.05717 51.0795 6.1248 51.3443 6.2037C51.6092 6.2826 51.86 6.38405 52.0967 6.50803L51.86 7.99587C51.6571 7.88315 51.4345 7.78453 51.1922 7.69999C50.9498 7.61545 50.6991 7.54501 50.4398 7.48865C50.1806 7.43229 49.9157 7.39002 49.6452 7.36185C49.3747 7.33367 49.1098 7.31958 48.8505 7.31958C48.5349 7.31958 48.2447 7.3393 47.9798 7.37875C47.7149 7.4182 47.481 7.48583 47.2782 7.58164C47.0753 7.67745 46.8977 7.7958 46.7456 7.93669C46.5934 8.07758 46.4807 8.24947 46.4074 8.45236C46.3342 8.65525 46.2975 8.88631 46.2975 9.14556C46.2975 9.4048 46.3342 9.62741 46.4074 9.81339C46.4807 9.99937 46.5906 10.1572 46.7371 10.2868C46.8837 10.4164 47.0555 10.5291 47.2528 10.6249C47.45 10.7207 47.6755 10.8025 47.9291 10.8701C48.1827 10.9377 48.456 11.0054 48.7491 11.073C49.1323 11.1519 49.5043 11.2477 49.865 11.3604C50.2256 11.4731 50.5666 11.6112 50.8878 11.7746C51.2091 11.9381 51.4909 12.1438 51.7332 12.3917C51.9755 12.6397 52.1615 12.944 52.2911 13.3047ZM62.8835 9.7035L61.9057 10.7405C62.0297 10.9039 62.1481 11.0786 62.2495 11.2674C62.6045 11.9268 62.7821 12.7017 62.7821 13.5922C62.7821 14.5277 62.5905 15.3392 62.2072 16.0268C61.824 16.7144 61.2971 17.2441 60.6264 17.6161C59.9558 17.988 59.1808 18.174 58.3017 18.174C57.4225 18.174 56.6983 17.9993 56.0615 17.6499C55.9177 17.571 55.7825 17.4808 55.6529 17.385L54.7511 18.36L53.9734 17.6499L54.9146 16.6467C54.7934 16.4833 54.6807 16.3086 54.5821 16.1198C54.2327 15.4491 54.058 14.6517 54.058 13.7274C54.058 12.8032 54.2411 12.0029 54.6074 11.3266C54.9738 10.6503 55.4866 10.1262 56.146 9.75422C56.8054 9.38226 57.5747 9.19628 58.4538 9.19628C59.333 9.19628 60.1107 9.37662 60.7532 9.73731C60.8913 9.81339 61.0181 9.90075 61.1421 9.99374L62.0889 8.99339L62.8835 9.7035ZM55.867 13.626C55.867 14.3163 55.9685 14.894 56.1742 15.3646L60.1079 11.1152C59.9558 10.9772 59.7839 10.8616 59.5894 10.7743C59.2738 10.6334 58.9019 10.5629 58.4736 10.5629C57.9438 10.5629 57.4845 10.6757 57.0956 10.9011C56.7067 11.1265 56.4052 11.4647 56.1911 11.9155C55.9769 12.3664 55.8698 12.9356 55.8698 13.6232L55.867 13.626ZM60.9899 13.626C60.9899 13.1638 60.9364 12.744 60.8293 12.3664C60.787 12.2199 60.7363 12.0818 60.6799 11.9522L56.7434 16.2015C56.842 16.2945 56.9434 16.379 57.059 16.4495C57.4366 16.6862 57.879 16.8045 58.3862 16.8045C58.8934 16.8045 59.3415 16.689 59.7303 16.4579C60.1192 16.2269 60.4263 15.8746 60.6518 15.4012C60.8772 14.9278 60.9899 14.3361 60.9899 13.626ZM68.4798 9.32308C68.1642 9.40762 67.8655 9.53724 67.5837 9.71195C67.3019 9.88666 67.0371 10.098 66.7891 10.346C66.7496 10.3854 66.7102 10.4305 66.6707 10.4728V9.21319L64.9462 9.46679V18.0049H66.6707V11.6168C66.8004 11.5267 66.9328 11.4421 67.0681 11.3689C67.2428 11.273 67.4175 11.1913 67.5922 11.1237C67.7669 11.0561 67.9444 10.9969 68.1248 10.9462C68.3051 10.8955 68.4939 10.8588 68.6911 10.8363C68.8884 10.8137 69.0941 10.8081 69.3083 10.8194L69.5111 9.23009C69.1392 9.20755 68.7954 9.23855 68.4798 9.32308ZM73.7464 16.7623C73.6957 16.7679 73.6365 16.7707 73.5689 16.7707C73.4223 16.7707 73.2984 16.7482 73.1969 16.7031C73.0955 16.658 73.0109 16.5875 72.9433 16.4917C72.8757 16.3959 72.8278 16.2748 72.7996 16.1282C72.7714 15.9817 72.7573 15.807 72.7573 15.6041V5.23999L71.0328 5.4936V16.3649C71.0328 16.6918 71.0779 16.9708 71.1681 17.2018C71.2582 17.4329 71.3878 17.6217 71.5569 17.7682C71.726 17.9148 71.9261 18.019 72.1571 18.081C72.3882 18.143 72.639 18.174 72.9095 18.174C73.0448 18.174 73.1744 18.1684 73.2984 18.1571C73.4223 18.1458 73.5435 18.1289 73.6619 18.1064C73.7802 18.0838 73.8788 18.0613 73.9577 18.0388L74.1268 16.7031L73.9239 16.7369C73.8563 16.7482 73.7971 16.7566 73.7464 16.7623ZM83.4089 16.9229C83.499 16.9116 83.5949 16.8891 83.6963 16.8552L83.5103 17.988C83.454 18.0106 83.3892 18.0303 83.3159 18.0472C83.2426 18.0641 83.1609 18.0838 83.0707 18.1064C82.9806 18.1289 82.8876 18.143 82.7918 18.1486C82.696 18.1543 82.5973 18.1571 82.4959 18.1571C82.1352 18.1571 81.814 18.0979 81.5322 17.9796C81.2504 17.8612 81.0306 17.6696 80.8728 17.4047C80.7883 17.2638 80.7291 17.0976 80.6896 16.906C80.5826 17.03 80.4727 17.1511 80.3571 17.261C80.0472 17.5541 79.6921 17.7795 79.292 17.9373C78.8918 18.0951 78.4156 18.174 77.8633 18.174C77.2659 18.174 76.7672 18.0613 76.367 17.8359C75.9669 17.6104 75.6682 17.3146 75.4709 16.9482C75.2737 16.5819 75.1751 16.1846 75.1751 15.7563C75.1751 15.3054 75.3019 14.8912 75.5555 14.5136C75.8091 14.136 76.1951 13.8232 76.7136 13.5752C77.2321 13.3273 77.8859 13.1807 78.6749 13.1357L80.6502 13.0032V12.5805C80.6502 12.2537 80.6192 11.9691 80.5516 11.7267C80.4839 11.4844 80.3712 11.2843 80.2134 11.1265C80.0556 10.9687 79.8386 10.8504 79.5625 10.7715C79.2863 10.6926 78.9454 10.6531 78.5396 10.6531C78.3142 10.6531 78.0859 10.6616 77.8549 10.6785C77.6238 10.6954 77.3899 10.7264 77.1532 10.7715C76.9165 10.8166 76.6714 10.8729 76.4177 10.9405C76.1641 11.0082 75.8964 11.0927 75.6147 11.1941L75.8175 9.75703C76.0993 9.64432 76.3952 9.54569 76.7052 9.46116C77.0151 9.37662 77.3448 9.31181 77.6942 9.26673C78.0437 9.22164 78.3987 9.1991 78.7594 9.1991C79.2553 9.1991 79.7006 9.24418 80.0951 9.33435C80.4896 9.42453 80.8305 9.55415 81.118 9.72322C81.4054 9.89229 81.6393 10.1008 81.8196 10.3488C81.9999 10.5968 82.1352 10.8842 82.2254 11.2111C82.3155 11.5379 82.3606 11.8986 82.3606 12.2931L82.3268 15.776C82.3155 16.193 82.3775 16.4917 82.5128 16.6721C82.6481 16.8524 82.8678 16.9426 83.1722 16.9426C83.2398 16.9426 83.3187 16.937 83.4089 16.9257V16.9229ZM80.6389 15.9113L80.6474 14.2346H79.168C78.6157 14.2346 78.1761 14.2797 77.8492 14.3699C77.5223 14.4601 77.2856 14.601 77.1391 14.7926C76.9926 14.9842 76.9193 15.2491 76.9193 15.5872C76.9193 15.8464 76.9757 16.0691 77.0884 16.255C77.2011 16.441 77.3674 16.5847 77.5872 16.6862C77.807 16.7876 78.0746 16.8383 78.3903 16.8383C78.6382 16.8383 78.8777 16.8158 79.1088 16.7707C79.3399 16.7256 79.5597 16.6524 79.7682 16.5509C79.9767 16.4495 80.174 16.3255 80.3599 16.179C80.4586 16.1001 80.5516 16.0099 80.6417 15.9141L80.6389 15.9113ZM91.9301 9.54851C91.5018 9.31181 90.9608 9.19346 90.307 9.19346C89.8223 9.19346 89.3405 9.26954 88.8615 9.42171C88.3824 9.57387 87.9287 9.79085 87.5004 10.0726C87.337 10.1797 87.1792 10.2981 87.027 10.4192V9.21037L85.3025 9.46398V18.0021H87.027V11.5802C87.1905 11.4844 87.3624 11.3942 87.5427 11.3153C87.785 11.2082 88.0274 11.1152 88.2697 11.0363C88.512 10.9574 88.7544 10.8983 88.9967 10.8588C89.239 10.8194 89.4729 10.7996 89.6984 10.7996C90.014 10.7996 90.2845 10.8419 90.5099 10.9265C90.7353 11.011 90.9213 11.1378 91.0678 11.3069C91.2144 11.4759 91.3215 11.6901 91.3891 11.9493C91.4567 12.2086 91.4905 12.5129 91.4905 12.8623V18.0021H93.2151V12.5073C93.2151 11.7408 93.108 11.1152 92.8938 10.6306C92.6797 10.1459 92.3584 9.78521 91.9301 9.54851ZM101.686 5.4936L103.41 5.2569V18.0049H102.007L101.795 17.2244C101.669 17.3174 101.542 17.4047 101.415 17.4808C101.032 17.7175 100.64 17.8922 100.24 18.0049C99.8399 18.1177 99.4144 18.174 98.9635 18.174C98.1858 18.174 97.5179 18.0021 96.96 17.6583C96.4021 17.3146 95.9738 16.8271 95.6751 16.1959C95.3764 15.5647 95.227 14.8151 95.227 13.9472C95.227 12.9328 95.4243 12.0733 95.8188 11.3689C96.2133 10.6644 96.7346 10.1262 97.3827 9.75422C98.0308 9.38226 98.7325 9.19628 99.4876 9.19628C99.916 9.19628 100.308 9.23291 100.663 9.30618C101.018 9.37944 101.342 9.47243 101.635 9.58514C101.652 9.59078 101.669 9.59923 101.686 9.60769V5.4936ZM101.686 16.1141V10.9039C101.598 10.8729 101.505 10.8363 101.424 10.8109C101.159 10.7264 100.897 10.6644 100.637 10.6249C100.378 10.5855 100.108 10.5658 99.8258 10.5658C99.2397 10.5658 98.7353 10.6869 98.3126 10.9293C97.8899 11.1716 97.5658 11.5267 97.3404 11.9944C97.115 12.4622 97.0023 13.0455 97.0023 13.7443C97.0023 14.4432 97.1037 15.0039 97.3066 15.4604C97.5095 15.9169 97.8026 16.255 98.1858 16.4748C98.569 16.6946 99.0311 16.8045 99.5722 16.8045C99.9329 16.8045 100.336 16.7228 100.781 16.5594C101.066 16.4551 101.367 16.3029 101.686 16.1141ZM113.292 12.0198C113.433 12.6284 113.464 13.3273 113.385 14.1163H107.276C107.299 14.5474 107.358 14.9194 107.459 15.2322C107.589 15.6267 107.781 15.9394 108.034 16.1705C108.288 16.4016 108.601 16.565 108.973 16.6608C109.345 16.7566 109.784 16.8045 110.291 16.8045C110.539 16.8045 110.787 16.7904 111.035 16.7623C111.283 16.7341 111.526 16.689 111.762 16.627C111.999 16.565 112.227 16.4946 112.447 16.4157C112.667 16.3368 112.884 16.2579 113.098 16.179L112.98 17.4808C112.675 17.6386 112.371 17.7682 112.067 17.8697C111.762 17.9711 111.438 18.0472 111.094 18.0979C110.751 18.1486 110.353 18.174 109.902 18.174C108.956 18.174 108.155 18.0078 107.502 17.6752C106.848 17.3427 106.355 16.8524 106.022 16.2043C105.69 15.5562 105.524 14.77 105.524 13.8458C105.524 13.1469 105.617 12.5129 105.802 11.9437C105.988 11.3745 106.259 10.887 106.614 10.4812C106.969 10.0755 107.4 9.75985 107.907 9.53442C108.415 9.30899 108.989 9.19628 109.632 9.19628C110.274 9.19628 110.846 9.30336 111.348 9.51752C111.85 9.73167 112.264 10.0501 112.591 10.4728C112.918 10.8955 113.151 11.4111 113.292 12.0198ZM107.527 11.9268C107.423 12.2029 107.355 12.5383 107.313 12.9159H111.759C111.759 12.5777 111.72 12.2593 111.635 11.9691C111.506 11.5182 111.278 11.166 110.951 10.9124C110.624 10.6588 110.19 10.5319 109.649 10.5319C109.108 10.5319 108.691 10.6475 108.33 10.8785C107.969 11.1096 107.702 11.459 107.527 11.9268ZM120.216 16.5932C120.137 16.6101 120.05 16.627 119.954 16.6439C119.858 16.6608 119.762 16.6777 119.666 16.6946C119.571 16.7115 119.478 16.7228 119.387 16.7284C119.297 16.7341 119.213 16.7369 119.134 16.7369C118.841 16.7369 118.59 16.6862 118.381 16.5847C118.173 16.4833 118.012 16.3339 117.9 16.1367C117.787 15.9394 117.731 15.6999 117.731 15.4181V10.7348H120.114L120.3 9.38226H117.731V6.71092L116.006 7.31958V9.38226H114.704L114.518 10.7348H116.006V15.7732C116.006 16.1564 116.057 16.4861 116.158 16.7623C116.26 17.0384 116.392 17.2667 116.555 17.447C116.719 17.6273 116.911 17.7682 117.13 17.8697C117.35 17.9711 117.584 18.0444 117.832 18.0895C118.08 18.1346 118.322 18.1571 118.559 18.1571C118.739 18.1571 118.917 18.1515 119.092 18.1402C119.266 18.1289 119.427 18.112 119.573 18.0895C119.72 18.0669 119.858 18.0416 119.988 18.0134C120.117 17.9852 120.227 17.9599 120.317 17.9373L120.419 16.534C120.362 16.5566 120.295 16.5763 120.216 16.5932Z" fill="#D4EEFC"/>
</svg>

<svg xmlns="http://www.w3.org/2000/svg" viewBox="0 0 126 24"><path fill="#1767CE" d="M0 0h126v24H0z"/><path fill="#fff" d="M6 17.998v-12h4v12H6Zm9.244-10.09 2.264 10.09H13.2l-2.704-12h2.417a2.276 2.276 0 0 1 1.512.55c.422.346.66.826.82 1.36ZM18 17.998v-12h4v12h-4Zm7.01-7.436a2.381 2.381 0 0 1-2.078-1.192 2.345 2.345 0 0 1-.321-1.208 2.301 2.301 0 0 1 .321-1.2A2.41 2.41 0 0 1 26.21 6.1c.356.21.653.506.862.862.215.363.326.778.321 1.2a2.35 2.35 0 0 1-.321 1.208 2.4 2.4 0 0 1-.862.87 2.301 2.301 0 0 1-1.2.322ZM28 17.998v-12h4v12h-4Zm8.974-5.442c.01.011.095.15.253.414s.364.602.617 1.014a316.22 316.22 0 0 1 1.597 2.62c.247.41.529.876.845 1.394H35.96c-.27-.44-.516-.837-.736-1.192-.22-.355-.453-.738-.7-1.15-.248-.41-.493-.81-.736-1.199-.242-.39-.45-.73-.625-1.022a18.04 18.04 0 0 0-.363-.592 1.747 1.747 0 0 1-.287-.845c.016-.29.11-.57.27-.811.067-.113.191-.313.371-.6a182.106 182.106 0 0 0 1.37-2.23l.7-1.159.736-1.2h4.326l-3.346 5.46a1.079 1.079 0 0 0-.17.54c.012.202.083.396.204.558Z"/><path fill="#D4EEFC" d="M52.291 13.305c.13.36.195.789.195 1.285 0 .676-.116 1.242-.347 1.699a2.863 2.863 0 0 1-.98 1.107 4.308 4.308 0 0 1-1.472.609 8.29 8.29 0 0 1-1.8.186c-.27 0-.538-.011-.803-.034-.265-.022-.53-.053-.795-.093a7.846 7.846 0 0 1-.82-.169 9.192 9.192 0 0 1-.88-.279l-.219-1.674c.27.102.555.2.854.296.299.096.606.178.921.245.316.068.632.122.947.16.316.04.62.06.913.06.35 0 .662-.023.938-.067.277-.046.522-.119.736-.22.214-.102.395-.237.541-.406.147-.17.26-.366.338-.592a2.35 2.35 0 0 0 .118-.778c0-.293-.042-.524-.126-.727a1.423 1.423 0 0 0-.347-.507 2.191 2.191 0 0 0-.533-.355 4.237 4.237 0 0 0-.701-.262c-.26-.073-.541-.144-.846-.211a11.475 11.475 0 0 1-1.09-.288 6.262 6.262 0 0 1-.99-.405 3.265 3.265 0 0 1-.81-.592 2.448 2.448 0 0 1-.55-.854c-.13-.332-.194-.73-.194-1.192 0-.586.104-1.093.312-1.522.209-.428.508-.783.896-1.065.39-.282.848-.49 1.378-.625a7.181 7.181 0 0 1 1.775-.203c.294 0 .581.014.863.042.282.028.558.07.828.127.27.056.539.124.803.203.265.079.516.18.753.304l-.237 1.488a4.267 4.267 0 0 0-.668-.296 6.428 6.428 0 0 0-.752-.211 7.668 7.668 0 0 0-1.59-.17c-.315 0-.605.02-.87.06-.265.04-.499.107-.702.203a2.09 2.09 0 0 0-.532.355c-.153.14-.265.312-.339.515-.073.203-.11.434-.11.694 0 .259.037.481.11.667.074.186.184.344.33.474.147.13.319.242.516.338.197.096.422.178.676.245.254.068.527.135.82.203.383.079.755.175 1.116.287.36.113.702.251 1.023.415.321.163.603.369.845.617s.428.552.558.913Zm10.593-3.601-.978 1.037c.124.163.242.338.343.526.355.66.533 1.435.533 2.325 0 .936-.191 1.747-.575 2.435a4.008 4.008 0 0 1-1.58 1.59c-.671.371-1.446.557-2.325.557-.88 0-1.604-.175-2.24-.524a3.612 3.612 0 0 1-.41-.265l-.9.975-.779-.71.942-1.003a3.966 3.966 0 0 1-.333-.527c-.35-.67-.524-1.468-.524-2.393 0-.924.183-1.724.55-2.4a3.9 3.9 0 0 1 1.538-1.573c.66-.372 1.429-.558 2.308-.558.879 0 1.657.18 2.3.541.137.076.264.164.388.257l.947-1 .794.71Zm-7.017 3.922c0 .69.102 1.268.307 1.739l3.934-4.25a1.967 1.967 0 0 0-.519-.34c-.315-.142-.687-.212-1.115-.212-.53 0-.99.113-1.378.338-.39.226-.69.564-.905 1.014-.214.451-.321 1.02-.321 1.708l-.003.003Zm5.123 0a4.61 4.61 0 0 0-.16-1.26 3.404 3.404 0 0 0-.15-.414l-3.937 4.25c.099.092.2.177.316.247.378.237.82.355 1.327.355s.956-.115 1.344-.346c.39-.231.696-.583.922-1.057.225-.473.338-1.065.338-1.775Zm7.49-4.303a3.325 3.325 0 0 0-.896.389 4.41 4.41 0 0 0-.795.634c-.04.04-.079.085-.118.127v-1.26l-1.725.254v8.538h1.725v-6.388a4.23 4.23 0 0 1 .921-.493c.175-.068.352-.127.533-.178a3.594 3.594 0 0 1 1.183-.127l.203-1.589a3.217 3.217 0 0 0-1.031.093Zm5.266 7.44a1.64 1.64 0 0 1-.177.008.914.914 0 0 1-.372-.068.61.61 0 0 1-.254-.211.927.927 0 0 1-.143-.364 2.812 2.812 0 0 1-.043-.524V5.24l-1.724.254v10.87c0 .328.045.607.135.838.09.23.22.42.389.566.169.147.37.251.6.313.231.062.482.093.752.093a3.79 3.79 0 0 0 1.048-.135l.17-1.336-.203.034c-.068.011-.127.02-.178.025Zm9.663.16c.09-.011.186-.034.287-.068l-.186 1.133a1.321 1.321 0 0 1-.194.06c-.073.016-.155.036-.245.058-.09.023-.183.037-.28.043a4.986 4.986 0 0 1-.295.008c-.36 0-.682-.06-.964-.177a1.365 1.365 0 0 1-.66-.575 1.583 1.583 0 0 1-.182-.499 4.958 4.958 0 0 1-.333.355c-.31.293-.665.518-1.065.676-.4.158-.876.237-1.429.237-.597 0-1.096-.113-1.496-.338a2.228 2.228 0 0 1-.896-.888 2.475 2.475 0 0 1-.296-1.192c0-.45.127-.865.38-1.242.254-.378.64-.69 1.159-.939.518-.248 1.172-.394 1.96-.44l1.976-.132v-.422c0-.327-.03-.612-.098-.854a1.34 1.34 0 0 0-.339-.6c-.157-.158-.374-.277-.65-.356a3.778 3.778 0 0 0-1.023-.118c-.226 0-.454.009-.685.025a6.14 6.14 0 0 0-.702.093 9.979 9.979 0 0 0-1.538.423l.202-1.437c.282-.113.578-.211.888-.296.31-.084.64-.15.99-.194.349-.045.704-.068 1.064-.068.496 0 .942.045 1.336.135.395.09.736.22 1.023.39.287.168.521.377.702.625.18.248.315.535.405.862.09.327.136.688.136 1.082l-.034 3.483c-.011.417.05.716.186.896.135.18.355.27.66.27.067 0 .146-.005.236-.016v-.003Zm-2.77-1.012.008-1.676h-1.479c-.552 0-.992.045-1.319.135-.327.09-.563.231-.71.423-.146.191-.22.456-.22.794 0 .26.057.482.17.668.112.186.278.33.498.431.22.102.488.152.803.152.248 0 .488-.022.719-.067.23-.045.45-.119.66-.22.208-.101.405-.225.59-.372.1-.079.193-.17.283-.265l-.003-.003ZM91.93 9.55c-.428-.237-.97-.356-1.623-.356a4.75 4.75 0 0 0-1.445.229c-.48.152-.933.369-1.362.65a6.41 6.41 0 0 0-.473.347V9.21l-1.725.254v8.538h1.725V11.58c.163-.096.335-.186.516-.265.242-.107.484-.2.727-.279.242-.079.484-.138.727-.177.242-.04.476-.06.701-.06.316 0 .587.043.812.128.225.084.411.21.558.38.146.169.254.383.321.642.068.26.102.564.102.913v5.14h1.724v-5.495c0-.766-.107-1.392-.321-1.876-.214-.485-.536-.846-.964-1.082Zm9.756-4.055 1.724-.237v12.748h-1.403l-.212-.78a4.81 4.81 0 0 1-.38.256 4.612 4.612 0 0 1-1.175.524c-.4.113-.826.169-1.276.169-.778 0-1.446-.172-2.004-.516a3.357 3.357 0 0 1-1.285-1.462c-.299-.631-.448-1.38-.448-2.249 0-1.014.197-1.874.592-2.578.394-.705.916-1.243 1.564-1.615a4.157 4.157 0 0 1 2.105-.558 5.827 5.827 0 0 1 2.198.412V5.494Zm0 10.62v-5.21c-.088-.031-.181-.068-.262-.093a5.119 5.119 0 0 0-1.598-.245c-.586 0-1.09.12-1.513.363a2.384 2.384 0 0 0-.973 1.065c-.225.468-.338 1.052-.338 1.75 0 .7.102 1.26.305 1.716.203.457.496.795.879 1.015.383.22.845.33 1.386.33.36 0 .764-.082 1.209-.246.285-.104.586-.256.905-.445Zm11.606-4.094c.141.608.172 1.307.093 2.096h-6.109c.023.431.082.803.183 1.116.13.395.322.707.575.939.254.23.567.394.939.49.372.096.811.143 1.318.143.248 0 .496-.014.744-.042.248-.028.491-.073.727-.135.237-.062.465-.132.685-.211.22-.08.437-.158.651-.237l-.118 1.302a5.723 5.723 0 0 1-1.886.617c-.343.05-.741.076-1.192.076-.946 0-1.747-.166-2.4-.499a3.309 3.309 0 0 1-1.48-1.47c-.332-.649-.498-1.435-.498-2.36 0-.698.093-1.332.278-1.901.186-.57.457-1.057.812-1.463a3.683 3.683 0 0 1 1.293-.947c.508-.225 1.082-.338 1.725-.338.642 0 1.214.107 1.716.322.502.214.916.532 1.243.955.327.422.56.938.701 1.547Zm-5.765-.093a4.159 4.159 0 0 0-.214.989h4.446c0-.338-.039-.657-.124-.947-.129-.45-.357-.803-.684-1.057-.327-.253-.761-.38-1.302-.38s-.958.116-1.319.347c-.361.23-.628.58-.803 1.048Zm12.689 4.666a7.334 7.334 0 0 1-.262.05l-.288.052a2.454 2.454 0 0 1-.279.033c-.09.006-.174.009-.253.009a1.71 1.71 0 0 1-.753-.152 1.088 1.088 0 0 1-.481-.448 1.424 1.424 0 0 1-.169-.719v-4.683h2.383l.186-1.353h-2.569V6.711l-1.725.609v2.062h-1.302l-.186 1.353h1.488v5.038c0 .383.051.713.152.99.102.275.234.504.397.684.164.18.356.321.575.423.22.101.454.174.702.22.248.045.49.067.727.067.18 0 .358-.006.533-.017a5.534 5.534 0 0 0 .896-.127c.129-.028.239-.053.329-.076l.102-1.403a1.277 1.277 0 0 1-.203.06Z"/></svg>
